resources/haticons/SVG/time.svg

<!-- Generated by IcoMoon.io -->
<svg version="1.1" xmlns="http://www.w3.org/2000/svg" width="24" height="24" viewBox="0 0 24 24">
<title>time</title>
<path d="M12 0c-6.619 0-12 5.381-12 12s5.381 12 12 12 12-5.381 12-12-5.381-12-12-12zM12 22.5c-5.79 0-10.5-4.71-10.5-10.5s4.71-10.5 10.5-10.5 10.5 4.71 10.5 10.5-4.71 10.5-10.5 10.5zM16.365 9.214l-4.2 1.89-4.984-4.984c-0.293-0.292-0.769-0.292-1.061 0s-0.292 0.769 0 1.061l5.351 5.351c0.011 0.011 0.026 0.015 0.038 0.026 0.053 0.045 0.112 0.086 0.176 0.116 0.022 0.011 0.045 0.023 0.067 0.030 0.075 0.026 0.161 0.045 0.248 0.045h0.004c0.097 0 0.199-0.023 0.289-0.064 0.004-0.004 0.008 0 0.011-0.004l4.672-2.1c0.379-0.169 0.547-0.615 0.375-0.994-0.165-0.375-0.607-0.544-0.986-0.375z"></path>
</svg>

<svg xmlns="http://www.w3.org/2000/svg" width="24" height="24"><path d="M12 0C5.381 0 0 5.381 0 12s5.381 12 12 12 12-5.381 12-12S18.619 0 12 0zm0 22.5C6.21 22.5 1.5 17.79 1.5 12S6.21 1.5 12 1.5 22.5 6.21 22.5 12 17.79 22.5 12 22.5zm4.365-13.286l-4.2 1.89L7.181 6.12c-.293-.292-.769-.292-1.061 0s-.292.769 0 1.061l5.351 5.351c.011.011.026.015.038.026a.8.8 0 0 0 .176.116c.022.011.045.023.067.03a.769.769 0 0 0 .248.045h.004a.71.71 0 0 0 .289-.064c.004-.004.008 0 .011-.004l4.672-2.1a.749.749 0 0 0 .375-.994c-.165-.375-.607-.544-.986-.375z"/></svg>
